; G-Code generated by Simplify3D(R) Version 4.0.0
; Jan 4, 2018 at 9:15:29 PM
; Settings Summary
;   processName,Process1
;   applyToModels,20mmPyramid
;   profileName,K40 Sugar SLS
;   profileVersion,2018-01-02 23:41:10
;   baseProfile,Default (modified)
;   printMaterial,PLA
;   printQuality,Medium
;   printExtruders,
;   extruderName,Laser,Shaker
;   extruderToolheadNumber,0,1
;   extruderDiameter,1,5
;   extruderAutoWidth,1,0
;   extruderWidth,1.2,0.4
;   extrusionMultiplier,0.9,0.9
;   extruderUseRetract,0,0
;   extruderRetractionDistance,1,1
;   extruderExtraRestartDistance,0,0
;   extruderRetractionZLift,0,0
;   extruderRetractionSpeed,1800,1800
;   extruderUseCoasting,0,0
;   extruderCoastingDistance,0.2,0.2
;   extruderUseWipe,0,0
;   extruderWipeDistance,5,5
;   primaryExtruder,0
;   layerHeight,1
;   topSolidLayers,1
;   bottomSolidLayers,1
;   perimeterOutlines,1
;   printPerimetersInsideOut,1
;   startPointOption,2
;   startPointOriginX,0
;   startPointOriginY,0
;   sequentialIslands,0
;   spiralVaseMode,0
;   firstLayerHeightPercentage,100
;   firstLayerWidthPercentage,100
;   firstLayerUnderspeed,1
;   useRaft,0
;   raftExtruder,0
;   raftTopLayers,3
;   raftBaseLayers,2
;   raftOffset,3
;   raftSeparationDistance,0.14
;   raftTopInfill,100
;   aboveRaftSpeedMultiplier,0.3
;   useSkirt,0
;   skirtExtruder,0
;   skirtLayers,1
;   skirtOutlines,2
;   skirtOffset,4
;   usePrimePillar,0
;   primePillarExtruder,999
;   primePillarWidth,12
;   primePillarLocation,7
;   primePillarSpeedMultiplier,1
;   useOozeShield,1
;   oozeShieldExtruder,0
;   oozeShieldOffset,5
;   oozeShieldOutlines,1
;   oozeShieldSidewallShape,0
;   oozeShieldSidewallAngle,0
;   oozeShieldSpeedMultiplier,1
;   infillExtruder,0
;   internalInfillPattern,Rectilinear
;   externalInfillPattern,Rectilinear
;   infillPercentage,0
;   outlineOverlapPercentage,15
;   infillExtrusionWidthPercentage,100
;   minInfillLength,5
;   infillLayerInterval,1
;   internalInfillAngles,45,-45
;   overlapInternalInfillAngles,0
;   externalInfillAngles,45,-45
;   generateSupport,0
;   supportExtruder,0
;   supportInfillPercentage,30
;   supportExtraInflation,0
;   supportBaseLayers,0
;   denseSupportExtruder,0
;   denseSupportLayers,0
;   denseSupportInfillPercentage,70
;   supportLayerInterval,1
;   supportHorizontalPartOffset,0.3
;   supportUpperSeparationLayers,1
;   supportLowerSeparationLayers,1
;   supportType,0
;   supportGridSpacing,4
;   maxOverhangAngle,45
;   supportAngles,0
;   temperatureName
;   temperatureNumber
;   temperatureSetpointCount
;   temperatureSetpointLayers
;   temperatureSetpointTemperatures
;   temperatureStabilizeAtStartup
;   temperatureHeatedBed
;   temperatureRelayBetweenLayers
;   temperatureRelayBetweenLoops
;   fanLayers
;   fanSpeeds
;   blipFanToFullPower,0
;   adjustSpeedForCooling,0
;   minSpeedLayerTime,15
;   minCoolingSpeedSlowdown,20
;   increaseFanForCooling,0
;   minFanLayerTime,45
;   maxCoolingFanSpeed,100
;   increaseFanForBridging,0
;   bridgingFanSpeed,100
;   use5D,1
;   relativeEdistances,0
;   allowEaxisZeroing,0
;   independentExtruderAxes,0
;   includeM10123,0
;   stickySupport,1
;   applyToolheadOffsets,0
;   gcodeXoffset,0
;   gcodeYoffset,0
;   gcodeZoffset,0
;   overrideMachineDefinition,1
;   machineTypeOverride,0
;   strokeXoverride,100
;   strokeYoverride,80
;   strokeZoverride,30
;   originOffsetXoverride,0
;   originOffsetYoverride,0
;   originOffsetZoverride,0
;   homeXdirOverride,-1
;   homeYdirOverride,1
;   homeZdirOverride,-1
;   flipXoverride,1
;   flipYoverride,-1
;   flipZoverride,1
;   toolheadOffsets,0,0|0,-48|0,0|0,0|0,0|0,0
;   overrideFirmwareConfiguration,0
;   firmwareTypeOverride,RepRap (Marlin/Repetier/Sprinter)
;   GPXconfigOverride,r2
;   baudRateOverride,115200
;   overridePrinterModels,0
;   printerModelsOverride
;   startingGcode,G21         ; Set units to mm,G90         ; Absolute positioning,,G0 X0 Y106 ; Move to top left corner of build area (depends on your build area)(remember to apply 26mm offset for wiper),,;Wipe procedure (This makes sure that your sugar bed is flat) (note: wiper is offset from shaker so I start at 106 and go to 26),G0 X20 Y106 ,G0 X20 Y26 F600,G0 X20 Y106 F1500,G0 X40 Y106 ,G0 X40 Y26 F600,G0 X40 Y106 F1500,G0 X60 Y106,G0 X60 Y26 F600,G0 X60 Y106 F1500,G0 X80 Y106,G0 X80 Y26 F600,,;It will now lower the bed and deposit the first layer of material
;   layerChangeGcode,G91 ;relative positioning,G0 Z1 ;move down so wiper doesnt touch sugar (added on top of the layer height),G90 ; back to absolute positioning,,,G53 X65 Y45 F2400 ;Go to this position to flip shaker head,G53 X65 Y10 F1000,G53 X28 Y10 F1000,G53 X28 Y45 F1500,,G54 ; Move in Work coordinate system??????????????,,G0 X0 Y0 F2400 ; Move to 0 in work coordinates,,; Enter Shake Gcode here (offset +48mm in the Y),,; Pass 0 Path 0,G0 X0.00 Y68.00,G1 X0.00 Y58.00 S0.00 F4800,,; Pass 0 Path 1,G0 X0.00 Y58.00,G1 X17.21 Y67.70 S0.00 F4800,G1 X33.17 Y58.00,G1 X50.06 Y67.70,G1 X65.71 Y58.00,G1 X82.84 Y67.70,G1 X99.87 Y58.00,,; Pass 0 Path 2,G0 X99.87 Y58.00,G1 X99.87 Y48.00 S0.00 F4800,,; Pass 0 Path 3,G0 X99.87 Y48.00,G1 X82.84 Y57.70 S0.00 F4800,G1 X65.71 Y48.00,G1 X50.06 Y57.70,G1 X33.17 Y48.00,G1 X17.21 Y57.70,G1 X0.00 Y48.00,,; Pass 0 Path 4,G0 X0.00 Y68.00,G1 X17.21 Y77.70 S0.00 F4800,G1 X33.17 Y68.00,G1 X50.06 Y77.70,G1 X65.71 Y68.00,G1 X82.84 Y77.70,G1 X99.87 Y68.00,,; Pass 0 Path 5,G0 X99.87 Y68.00,G1 X99.87 Y78.00 S0.00 F4800,,; Pass 0 Path 6,G0 X99.87 Y78.00,G1 X82.84 Y87.70 S0.00 F4800,G1 X65.71 Y78.00,G1 X50.06 Y87.70,G1 X33.17 Y78.00,G1 X17.21 Y87.70,G1 X0.00 Y78.00,,; Pass 0 Path 7,G0 X0.00 Y78.00,G1 X0.00 Y88.00 S0.00 F4800,,; Pass 0 Path 8,G0 X0.00 Y88.00,G1 X17.21 Y97.70 S0.00 F4800,G1 X33.17 Y88.00,G1 X50.06 Y97.70,G1 X65.71 Y88.00,G1 X82.84 Y97.70,G1 X99.87 Y88.00,,; Pass 0 Path 9,G0 X99.87 Y88.00,G1 X99.87 Y98.00 S0.00 F4800,,; Pass 0 Path 10,G0 X99.87 Y98.00,G1 X82.84 Y107.70 S0.00 F4800,G1 X65.71 Y98.00,G1 X50.06 Y107.70,G1 X33.17 Y98.00,G1 X17.21 Y107.70,G1 X0.00 Y98.00,,; Pass 0 Path 11,G0 X0.00 Y98.00,G1 X0.00 Y108.00 S0.00 F4800,,; Pass 0 Path 12,G0 X0.00 Y108.00,G1 X17.21 Y117.70 S0.00 F4800,G1 X33.17 Y108.00,G1 X50.06 Y117.70,G1 X65.71 Y108.00,G1 X82.84 Y117.70,G1 X99.87 Y108.00,,; Pass 0 Path 13,G0 X99.87 Y108.00,G1 X99.87 Y118.00 S0.00 F4800,,; Pass 0 Path 14,G0 X99.87 Y118.00,G1 X82.84 Y127.70 S0.00 F4800,G1 X65.71 Y118.00,G1 X50.06 Y127.70,G1 X33.17 Y118.00,G1 X17.21 Y127.70,G1 X0.00 Y118.00,,; Pass 0 Path 0,G0 X0.00 Y68.00,G1 X0.00 Y58.00 S0.00 F4800,,; Pass 0 Path 1,G0 X0.00 Y58.00,G1 X17.21 Y67.70 S0.00 F4800,G1 X33.17 Y58.00,G1 X50.06 Y67.70,G1 X65.71 Y58.00,G1 X82.84 Y67.70,G1 X99.87 Y58.00,,; Pass 0 Path 2,G0 X99.87 Y58.00,G1 X99.87 Y48.00 S0.00 F4800,,; Pass 0 Path 3,G0 X99.87 Y48.00,G1 X82.84 Y57.70 S0.00 F4800,G1 X65.71 Y48.00,G1 X50.06 Y57.70,G1 X33.17 Y48.00,G1 X17.21 Y57.70,G1 X0.00 Y48.00,,; Pass 0 Path 4,G0 X0.00 Y68.00,G1 X17.21 Y77.70 S0.00 F4800,G1 X33.17 Y68.00,G1 X50.06 Y77.70,G1 X65.71 Y68.00,G1 X82.84 Y77.70,G1 X99.87 Y68.00,,; Pass 0 Path 5,G0 X99.87 Y68.00,G1 X99.87 Y78.00 S0.00 F4800,,; Pass 0 Path 6,G0 X99.87 Y78.00,G1 X82.84 Y87.70 S0.00 F4800,G1 X65.71 Y78.00,G1 X50.06 Y87.70,G1 X33.17 Y78.00,G1 X17.21 Y87.70,G1 X0.00 Y78.00,,; Pass 0 Path 7,G0 X0.00 Y78.00,G1 X0.00 Y88.00 S0.00 F4800,,; Pass 0 Path 8,G0 X0.00 Y88.00,G1 X17.21 Y97.70 S0.00 F4800,G1 X33.17 Y88.00,G1 X50.06 Y97.70,G1 X65.71 Y88.00,G1 X82.84 Y97.70,G1 X99.87 Y88.00,,; Pass 0 Path 9,G0 X99.87 Y88.00,G1 X99.87 Y98.00 S0.00 F4800,,; Pass 0 Path 10,G0 X99.87 Y98.00,G1 X82.84 Y107.70 S0.00 F4800,G1 X65.71 Y98.00,G1 X50.06 Y107.70,G1 X33.17 Y98.00,G1 X17.21 Y107.70,G1 X0.00 Y98.00,,; Pass 0 Path 11,G0 X0.00 Y98.00,G1 X0.00 Y108.00 S0.00 F4800,,; Pass 0 Path 12,G0 X0.00 Y108.00,G1 X17.21 Y117.70 S0.00 F4800,G1 X33.17 Y108.00,G1 X50.06 Y117.70,G1 X65.71 Y108.00,G1 X82.84 Y117.70,G1 X99.87 Y108.00,,; Pass 0 Path 13,G0 X99.87 Y108.00,G1 X99.87 Y118.00 S0.00 F4800,,; Pass 0 Path 14,G0 X99.87 Y118.00,G1 X82.84 Y127.70 S0.00 F4800,G1 X65.71 Y118.00,G1 X50.06 Y127.70,G1 X33.17 Y118.00,G1 X17.21 Y127.70,G1 X0.00 Y118.00,,,G53 X8 Y45; F2400 Go to this position to flip shaker head back in MCS (position depends on stopper location for your laser),G53 X8 Y10 F1000,G53 X39 Y10 F1000,G53 X39 Y45 F1500 ,,,G54 ; Move in Work coordinate system??????????????,,G0 X20 Y86 F2400 ;move to top left corner for wiper (applied 26mm offset for wiper),,G91 ;relative positioning,G0 Z-1 ;move up so wiper scrapes sugar (dependant on and how far you moved down),G90 ; back to absolute positioning,,;Wipe procedure (note: wiper is offset from shaker so I start at 106 and go to 26),G0 X20 Y26 F1500,G0 X20 Y106 F2000,G0 X40 Y106,G0 X40 Y26 F1500,G0 X40 Y106 F2000,G0 X60 Y106,G0 X60 Y26 F1500,G0 X60 Y106 F2000,G0 X80 Y106,G0 X80 Y26 F1500,,G91 ;relative positioning,G0 Z1 ;move down (layer height) so wiper doesnt touch sugar,G90 ; back to absolute positioning
;   retractionGcode,
;   toolChangeGcode,
;   endingGcode,M5          ; Switch tool offEnd,M2          ; End,
;   exportFileFormat,gcode
;   celebration,0
;   celebrationSong,Random Song
;   postProcessing,
;   defaultSpeed,600
;   outlineUnderspeed,1
;   solidInfillUnderspeed,1
;   supportUnderspeed,1
;   rapidXYspeed,3600
;   rapidZspeed,60
;   minBridgingArea,50
;   bridgingExtraInflation,0
;   bridgingExtrusionMultiplier,1
;   bridgingSpeedMultiplier,1
;   useFixedBridgingAngle,0
;   fixedBridgingAngle,0
;   applyBridgingToPerimeters,0
;   filamentDiameters,1.75|1.75|1.75|1.75|1.75|1.75
;   filamentPricesPerKg,46|46|46|46|46|46
;   filamentDensities,1.25|1.25|1.25|1.25|1.25|1.25
;   useMinPrintHeight,0
;   minPrintHeight,0
;   useMaxPrintHeight,0
;   maxPrintHeight,0
;   useDiaphragm,0
;   diaphragmLayerInterval,20
;   robustSlicing,1
;   mergeAllIntoSolid,0
;   onlyRetractWhenCrossingOutline,0
;   retractBetweenLayers,0
;   useRetractionMinTravel,0
;   retractionMinTravel,3
;   retractWhileWiping,0
;   onlyWipeOutlines,0
;   avoidCrossingOutline,0
;   maxMovementDetourFactor,3
;   toolChangeRetractionDistance,12
;   toolChangeExtraRestartDistance,-0.5
;   toolChangeRetractionSpeed,600
;   externalThinWallType,0
;   internalThinWallType,2
;   thinWallAllowedOverlapPercentage,10
;   singleExtrusionMinLength,1
;   singleExtrusionMinPrintingWidthPercentage,50
;   singleExtrusionMaxPrintingWidthPercentage,200
;   singleExtrusionEndpointExtension,0.2
;   horizontalSizeCompensation,0
G90
M82
G21         ; Set units to mm
G90         ; Absolute positioning
G0 X0 Y106 ; Move to top left corner of build area (depends on your build area)(remember to apply 26mm offset for wiper)
;Wipe procedure (This makes sure that your sugar bed is flat) (note: wiper is offset from shaker so I start at 106 and go to 26)
G0 X20 Y106 
G0 X20 Y26 F600
G0 X20 Y106 F1500
G0 X40 Y106 
G0 X40 Y26 F600
G0 X40 Y106 F1500
G0 X60 Y106
G0 X60 Y26 F600
G0 X60 Y106 F1500
G0 X80 Y106
G0 X80 Y26 F600
;It will now lower the bed and deposit the first layer of material
G1 Z1.000 F60
; process Process1
; layer 1, Z = 1.000
G91 ;relative positioning
G0 Z1 ;move down so wiper doesnt touch sugar (added on top of the layer height)
G90 ; back to absolute positioning


G53 X65 Y45 F2400 ;Go to this position to flip shaker head
G53 X65 Y10 F1000
G53 X28 Y10 F1000
G53 X28 Y45 F1500

G54 ; Move in Work coordinate system??????????????

G0 X0 Y0 F2400 ; Move to 0 in work coordinates

; Enter Shake Gcode here (offset +48mm in the Y)

; Pass 0 Path 0
G0 X0.00 Y68.00
G1 X0.00 Y58.00 S0.00 F4800

; Pass 0 Path 1
G0 X0.00 Y58.00
G1 X17.21 Y67.70 S0.00 F4800
G1 X33.17 Y58.00
G1 X50.06 Y67.70
G1 X65.71 Y58.00
G1 X82.84 Y67.70
G1 X99.87 Y58.00

; Pass 0 Path 2
G0 X99.87 Y58.00
G1 X99.87 Y48.00 S0.00 F4800

; Pass 0 Path 3
G0 X99.87 Y48.00
G1 X82.84 Y57.70 S0.00 F4800
G1 X65.71 Y48.00
G1 X50.06 Y57.70
G1 X33.17 Y48.00
G1 X17.21 Y57.70
G1 X0.00 Y48.00

; Pass 0 Path 4
G0 X0.00 Y68.00
G1 X17.21 Y77.70 S0.00 F4800
G1 X33.17 Y68.00
G1 X50.06 Y77.70
G1 X65.71 Y68.00
G1 X82.84 Y77.70
G1 X99.87 Y68.00

; Pass 0 Path 5
G0 X99.87 Y68.00
G1 X99.87 Y78.00 S0.00 F4800

; Pass 0 Path 6
G0 X99.87 Y78.00
G1 X82.84 Y87.70 S0.00 F4800
G1 X65.71 Y78.00
G1 X50.06 Y87.70
G1 X33.17 Y78.00
G1 X17.21 Y87.70
G1 X0.00 Y78.00

; Pass 0 Path 7
G0 X0.00 Y78.00
G1 X0.00 Y88.00 S0.00 F4800

; Pass 0 Path 8
G0 X0.00 Y88.00
G1 X17.21 Y97.70 S0.00 F4800
G1 X33.17 Y88.00
G1 X50.06 Y97.70
G1 X65.71 Y88.00
G1 X82.84 Y97.70
G1 X99.87 Y88.00

; Pass 0 Path 9
G0 X99.87 Y88.00
G1 X99.87 Y98.00 S0.00 F4800

; Pass 0 Path 10
G0 X99.87 Y98.00
G1 X82.84 Y107.70 S0.00 F4800
G1 X65.71 Y98.00
G1 X50.06 Y107.70
G1 X33.17 Y98.00
G1 X17.21 Y107.70
G1 X0.00 Y98.00

; Pass 0 Path 11
G0 X0.00 Y98.00
G1 X0.00 Y108.00 S0.00 F4800

; Pass 0 Path 12
G0 X0.00 Y108.00
G1 X17.21 Y117.70 S0.00 F4800
G1 X33.17 Y108.00
G1 X50.06 Y117.70
G1 X65.71 Y108.00
G1 X82.84 Y117.70
G1 X99.87 Y108.00

; Pass 0 Path 13
G0 X99.87 Y108.00
G1 X99.87 Y118.00 S0.00 F4800

; Pass 0 Path 14
G0 X99.87 Y118.00
G1 X82.84 Y127.70 S0.00 F4800
G1 X65.71 Y118.00
G1 X50.06 Y127.70
G1 X33.17 Y118.00
G1 X17.21 Y127.70
G1 X0.00 Y118.00

; Pass 0 Path 0
G0 X0.00 Y68.00
G1 X0.00 Y58.00 S0.00 F4800

; Pass 0 Path 1
G0 X0.00 Y58.00
G1 X17.21 Y67.70 S0.00 F4800
G1 X33.17 Y58.00
G1 X50.06 Y67.70
G1 X65.71 Y58.00
G1 X82.84 Y67.70
G1 X99.87 Y58.00

; Pass 0 Path 2
G0 X99.87 Y58.00
G1 X99.87 Y48.00 S0.00 F4800

; Pass 0 Path 3
G0 X99.87 Y48.00
G1 X82.84 Y57.70 S0.00 F4800
G1 X65.71 Y48.00
G1 X50.06 Y57.70
G1 X33.17 Y48.00
G1 X17.21 Y57.70
G1 X0.00 Y48.00

; Pass 0 Path 4
G0 X0.00 Y68.00
G1 X17.21 Y77.70 S0.00 F4800
G1 X33.17 Y68.00
G1 X50.06 Y77.70
G1 X65.71 Y68.00
G1 X82.84 Y77.70
G1 X99.87 Y68.00

; Pass 0 Path 5
G0 X99.87 Y68.00
G1 X99.87 Y78.00 S0.00 F4800

; Pass 0 Path 6
G0 X99.87 Y78.00
G1 X82.84 Y87.70 S0.00 F4800
G1 X65.71 Y78.00
G1 X50.06 Y87.70
G1 X33.17 Y78.00
G1 X17.21 Y87.70
G1 X0.00 Y78.00

; Pass 0 Path 7
G0 X0.00 Y78.00
G1 X0.00 Y88.00 S0.00 F4800

; Pass 0 Path 8
G0 X0.00 Y88.00
G1 X17.21 Y97.70 S0.00 F4800
G1 X33.17 Y88.00
G1 X50.06 Y97.70
G1 X65.71 Y88.00
G1 X82.84 Y97.70
G1 X99.87 Y88.00

; Pass 0 Path 9
G0 X99.87 Y88.00
G1 X99.87 Y98.00 S0.00 F4800

; Pass 0 Path 10
G0 X99.87 Y98.00
G1 X82.84 Y107.70 S0.00 F4800
G1 X65.71 Y98.00
G1 X50.06 Y107.70
G1 X33.17 Y98.00
G1 X17.21 Y107.70
G1 X0.00 Y98.00

; Pass 0 Path 11
G0 X0.00 Y98.00
G1 X0.00 Y108.00 S0.00 F4800

; Pass 0 Path 12
G0 X0.00 Y108.00
G1 X17.21 Y117.70 S0.00 F4800
G1 X33.17 Y108.00
G1 X50.06 Y117.70
G1 X65.71 Y108.00
G1 X82.84 Y117.70
G1 X99.87 Y108.00

; Pass 0 Path 13
G0 X99.87 Y108.00
G1 X99.87 Y118.00 S0.00 F4800

; Pass 0 Path 14
G0 X99.87 Y118.00
G1 X82.84 Y127.70 S0.00 F4800
G1 X65.71 Y118.00
G1 X50.06 Y127.70
G1 X33.17 Y118.00
G1 X17.21 Y127.70
G1 X0.00 Y118.00


G53 X8 Y45; F2400 Go to this position to flip shaker head back in MCS (position depends on stopper location for your laser)
G53 X8 Y10 F1000
G53 X39 Y10 F1000
G53 X39 Y45 F1500 


G54 ; Move in Work coordinate system??????????????

G0 X20 Y86 F2400 ;move to top left corner for wiper (applied 26mm offset for wiper)

G91 ;relative positioning
G0 Z-1 ;move up so wiper scrapes sugar (dependant on and how far you moved down)
G90 ; back to absolute positioning

;Wipe procedure (note: wiper is offset from shaker so I start at 106 and go to 26)
G0 X20 Y26 F1500
G0 X20 Y106 F2000
G0 X40 Y106
G0 X40 Y26 F1500
G0 X40 Y106 F2000
G0 X60 Y106
G0 X60 Y26 F1500
G0 X60 Y106 F2000
G0 X80 Y106
G0 X80 Y26 F1500

G91 ;relative positioning
G0 Z1 ;move down (layer height) so wiper doesnt touch sugar
